frontend/public/images/user.svg

<svg width="512" height="513" viewBox="0 0 512 513" fill="none" xmlns="http://www.w3.org/2000/svg">
<g clip-path="url(#clip0)">
<path d="M252.352 246.633C286.234 246.633 315.574 234.48 339.547 210.504C363.52 186.531 375.672 157.199 375.672 123.312C375.672 89.4375 363.52 60.1016 339.543 36.1211C315.566 12.1523 286.23 0 252.352 0C218.465 0 189.133 12.1523 165.16 36.125C141.188 60.0977 129.031 89.4336 129.031 123.312C129.031 157.199 141.188 186.535 165.164 210.508C189.141 234.477 218.477 246.633 252.352 246.633V246.633Z" fill="white"/>
<path d="M468.129 393.703C467.438 383.727 466.039 372.844 463.98 361.352C461.902 349.773 459.227 338.828 456.023 328.824C452.715 318.484 448.215 308.273 442.652 298.488C436.879 288.332 430.098 279.488 422.488 272.211C414.531 264.598 404.789 258.477 393.523 254.012C382.297 249.57 369.855 247.32 356.547 247.32C351.32 247.32 346.266 249.465 336.504 255.82C330.496 259.738 323.469 264.27 315.625 269.281C308.918 273.555 299.832 277.559 288.609 281.184C277.66 284.727 266.543 286.523 255.57 286.523C244.598 286.523 233.484 284.727 222.523 281.184C211.312 277.562 202.227 273.559 195.527 269.285C187.758 264.32 180.727 259.789 174.629 255.816C164.879 249.461 159.82 247.316 154.594 247.316C141.281 247.316 128.844 249.57 117.621 254.016C106.363 258.473 96.6172 264.594 88.6523 272.215C81.0469 279.496 74.2617 288.336 68.4961 298.488C62.9375 308.273 58.4375 318.48 55.125 328.828C51.9258 338.832 49.25 349.773 47.1719 361.352C45.1133 372.828 43.7148 383.715 43.0234 393.715C42.3438 403.512 42 413.68 42 423.949C42 450.676 50.4961 472.312 67.25 488.27C83.7969 504.016 105.691 512.004 132.316 512.004H378.848C405.473 512.004 427.359 504.02 443.91 488.27C460.668 472.324 469.164 450.684 469.164 423.945C469.16 413.629 468.813 403.453 468.129 393.703V393.703Z" fill="white"/>
</g>
<defs>
<clipPath id="clip0">
<rect width="512" height="512.002" fill="white"/>
</clipPath>
</defs>
</svg>

<?xml version="1.0" encoding="utf-8"?>
<!-- Generator: Adobe Illustrator 26.0.1, SVG Export Plug-In . SVG Version: 6.00 Build 0)  -->
<svg version="1.1" id="Ebene_1" xmlns="http://www.w3.org/2000/svg" xmlns:xlink="http://www.w3.org/1999/xlink" x="0px" y="0px"
	 viewBox="0 0 512 513" style="enable-background:new 0 0 512 513;" xml:space="preserve">
<style type="text/css">
	.st0{clip-path:url(#SVGID_00000097491183249856275910000013003974097235257227_);}
	.st1{fill:#1D1D1B;}
</style>
<g>
	<defs>
		<rect id="SVGID_1_" y="0" width="512" height="512"/>
	</defs>
	<clipPath id="SVGID_00000047762705138360513880000010222302190663693209_">
		<use xlink:href="#SVGID_1_"  style="overflow:visible;"/>
	</clipPath>
	<g style="clip-path:url(#SVGID_00000047762705138360513880000010222302190663693209_);">
		<path class="st1" d="M252.4,246.6c33.9,0,63.2-12.2,87.2-36.1c24-24,36.1-53.3,36.1-87.2c0-33.9-12.2-63.2-36.1-87.2
			c-24-24-53.3-36.1-87.2-36.1c-33.9,0-63.2,12.2-87.2,36.1c-24,24-36.1,53.3-36.1,87.2c0,33.9,12.2,63.2,36.1,87.2
			C189.1,234.5,218.5,246.6,252.4,246.6L252.4,246.6z"/>
		<path class="st1" d="M468.1,393.7c-0.7-10-2.1-20.9-4.1-32.4c-2.1-11.6-4.8-22.5-8-32.5c-3.3-10.3-7.8-20.6-13.4-30.3
			c-5.8-10.2-12.6-19-20.2-26.3c-8-7.6-17.7-13.7-29-18.2c-11.2-4.4-23.7-6.7-37-6.7c-5.2,0-10.3,2.1-20,8.5
			c-6,3.9-13,8.4-20.9,13.5c-6.7,4.3-15.8,8.3-27,11.9c-10.9,3.5-22.1,5.3-33,5.3c-11,0-22.1-1.8-33-5.3c-11.2-3.6-20.3-7.6-27-11.9
			c-7.8-5-14.8-9.5-20.9-13.5c-9.8-6.4-14.8-8.5-20-8.5c-13.3,0-25.8,2.3-37,6.7c-11.3,4.5-21,10.6-29,18.2
			c-7.6,7.3-14.4,16.1-20.2,26.3c-5.6,9.8-10.1,20-13.4,30.3c-3.2,10-5.9,20.9-8,32.5c-2.1,11.5-3.5,22.4-4.1,32.4
			c-0.7,9.8-1,20-1,30.2c0,26.7,8.5,48.4,25.2,64.3C83.8,504,105.7,512,132.3,512h246.5c26.6,0,48.5-8,65.1-23.7
			c16.8-15.9,25.3-37.6,25.3-64.3C469.2,413.6,468.8,403.5,468.1,393.7L468.1,393.7z"/>
	</g>
</g>
</svg>
